icones/panier.svg

<svg width="18" height="18" viewBox="0 0 18 18" fill="none" xmlns="http://www.w3.org/2000/svg">
<path fill-rule="evenodd" clip-rule="evenodd" d="M15.7465 14.6633L15.75 4.14534C15.7293 3.91174 15.5258 3.73486 15.2879 3.73486H12.3319C12.3042 1.98026 10.8212 0.5625 8.99994 0.5625C7.17883 0.5625 5.69578 1.98026 5.66815 3.73486C5.66815 3.73486 2.95345 3.73486 2.71214 3.73486C2.47083 3.73486 2.27074 3.91174 2.25 4.14534L2.25336 14.6633C2.25336 14.6767 2.25 14.6901 2.25 14.7034C2.25 15.901 3.38477 16.875 4.78163 16.875H13.2182C14.6152 16.875 15.75 15.901 15.75 14.7034C15.75 14.6901 15.75 14.6767 15.7465 14.6633ZM8.99994 1.46328C10.3072 1.46328 11.3731 2.47739 11.4005 3.73486H6.59933C6.62697 2.47739 7.69267 1.46328 8.99994 1.46328ZM13.2182 15.9744H4.78163C3.9055 15.9744 3.19515 15.4139 3.18136 14.7235V4.63905H5.66461V6.00664C5.66461 6.25684 5.8716 6.45699 6.13029 6.45699C6.38897 6.45699 6.59597 6.25684 6.59597 6.00664V4.63905H11.4005V6.00664C11.4005 6.25684 11.6075 6.45699 11.8662 6.45699C12.1249 6.45699 12.3319 6.25684 12.3319 6.00664V4.63905H14.7825V14.7235C14.7687 15.4139 14.091 15.9744 13.2182 15.9744Z" fill="black"/>
</svg>

<svg width="18" height="18" fill="none" xmlns="http://www.w3.org/2000/svg"><path fill-rule="evenodd" clip-rule="evenodd" d="m15.746 14.663.004-10.518a.46.46 0 0 0-.462-.41h-2.956C12.304 1.98 10.822.563 9 .563c-1.821 0-3.304 1.417-3.332 3.172H2.712a.457.457 0 0 0-.462.41l.003 10.518c0 .014-.003.027-.003.04 0 1.198 1.135 2.172 2.532 2.172h8.436c1.397 0 2.532-.974 2.532-2.172 0-.013 0-.026-.004-.04ZM9 1.463c1.307 0 2.373 1.014 2.4 2.272H6.6C6.626 2.477 7.692 1.463 9 1.463Zm4.218 14.511H4.782c-.877 0-1.587-.56-1.6-1.25V4.638h2.483v1.368c0 .25.207.45.465.45.259 0 .466-.2.466-.45V4.639H11.4v1.368c0 .25.207.45.466.45s.466-.2.466-.45V4.639h2.45v10.085c-.013.69-.691 1.25-1.564 1.25Z" fill="#000"/></svg>
